X: 23676
T: Links By The Bay, The
R: reel
M: 4/4
K: Fmajor
|:"F"c2FG "Dm"ABcF|"Gm"Bdgf "C"ecBG|"F"c2BG Acfc|"C"BGEG B2AB|
"F"c2BG Acfa|"C"gecd e3g|"F"afge "C"c3c|"Eb"BG_EG B3d:|
|:"F"AFcF dFcB|"F"Acfd "C"efgb|"F"afge "C"c3d|"Eb"_e2gf "C"=ecBG|
"F"AFcF dFcB|"F"Acfd "C"e3g|"F"fgaf c2(3def|1 "C"ecBG c3d:|2 "C"ecBG c4||

